icons/medal-2-line.svg

<svg width="24" height="24" fill="none" xmlns="http://www.w3.org/2000/svg"><g clip-path="url(#a)"><path d="m12 8.5 2.116 5.088 5.492.44-4.184 3.584 1.278 5.36L12 20.1l-4.702 2.872 1.278-5.36-4.184-3.584 5.492-.44L12 8.5Zm0 5.207-.739 1.777-1.916.153 1.46 1.251-.447 1.871L12 17.756l1.641 1.003-.446-1.87 1.459-1.252-1.915-.153L12 13.707ZM8 2v9H6V2h2Zm10 0v9h-2V2h2Zm-5 0v5h-2V2h2Z" /></g><defs><clipPath id="a"><path fill="#fff" d="M0 0h24v24H0z"/></clipPath></defs></svg>

<svg xmlns="http://www.w3.org/2000/svg" width="24" height="24" fill="none"><g clip-path="url(#a)"><g><path fill="#121212" d="M12 8.5L14.116 13.588L19.608 14.028L15.424 17.612L16.702 22.972L12 20.1L7.298 22.972L8.576 17.612L4.392 14.028L9.884 13.588L12 8.5ZM12 13.707L11.261 15.484L9.345 15.637L10.805 16.888L10.358 18.759L12 17.756L13.641 18.759L13.195 16.889L14.654 15.637L12.739 15.484L12 13.707ZM8 2V11H6V2H8ZM18 2V11H16V2H18ZM13 2V7H11V2H13Z"/></g></g><defs><clipPath id="a"><rect width="24" height="24" fill="white"/></clipPath></defs></svg>
